kora-light/actions/scalable/code-variable.svg

<svg xmlns="http://www.w3.org/2000/svg" style="fill-rule:evenodd;clip-rule:evenodd;stroke-linejoin:round;stroke-miterlimit:2" width="100%" height="100%" version="1.1" viewBox="0 0 16 16" xml:space="preserve">
 <defs>
  <style id="current-color-scheme" type="text/css">
   .ColorScheme-Text { color:#444444; } .ColorScheme-Highlight { color:#4285f4; } .ColorScheme-NeutralText { color:#ff9800; } .ColorScheme-PositiveText { color:#4caf50; } .ColorScheme-NegativeText { color:#f44336; }
  </style>
 </defs>
 <path style="fill:currentColor;" class="ColorScheme-Text" d="M6,9l0,6l3,0l0,-6l-3,0Zm-5,0l0,4l3,0l0,-4l-3,0Zm10,0l0,3l4,0l0,-3l-4,0Z"/>
 <rect style="fill:currentColor;fill-opacity:0.3" class="ColorScheme-Text" width="14" height="7" x="1" y="1"/>
</svg>

<svg xmlns="http://www.w3.org/2000/svg" width="16" height="16" version="1.1">
 <defs>
  <style id="current-color-scheme" type="text/css">
   .ColorScheme-Text { color:#444444; } .ColorScheme-Highlight { color:#4285f4; }
  </style>
 </defs>
 <path style="fill:currentColor" class="ColorScheme-Text" d="M 1,1 V 8 H 15 V 1 Z M 1,9 V 13 H 4 V 9 Z M 6,9 V 15 H 9 V 9 Z M 11,9 V 12 H 15 V 9 Z"/>
</svg>
